X:1
T:Title
%%score { ( 1 4 ) | ( 2 3 ) }
L:1/8
Q:1/4=100
M:3/4
K:G
V:1 treble nm="Grand Piano"
V:4 treble 
V:2 bass 
V:3 bass 
V:1
 [DB]2 [CA]2 [DB]2 | [Ec]4 [EB]2 | B2 A2 G2 | G4 F2 | G2 A2 B2 | [Ec]4 [Ec]2 | B2 A2 [^CG]2 | %7
w: R.~Menthal * *|||||||
 [DA]6 | D2- [A,DF]2 [B,DG]2 | A4 F2 | G2 A2 c2 | B4 A2 | B2 A2 [DGB]2 | [CGc]4 [CEA]2 | %14
w: |||||||
 [B,DG]4 [A,DF]2 | [B,DG]6 | [DB]4 [DGB]2 | [CFA]4 [CFA]2 | [B,G]4 [EGc]2 | [DGB]4 [CFA]2 | %20
w: ||||||
 G2- [GA]2 [DGB]2 | [Gc]4 [G^c]2 | d2- [Fd]2 G2 | B4 A2 | [DB]4[K:bass][K:treble] z2 | A4 z2 | %26
w: ||||||
 G4 z2 | [=Fd]4[K:bass][K:treble] z2 | [DB]2 [CA]2 [DB]2 | [Ec]4 [CEA]2 | [B,DG]4 [A,DF]2 | %31
w: |||||
[M:7/4] [G,B,DG]6 z2 z2 z4 |[M:3/4] [CEG]6 | [B,DG]6 |] %34
w: |||
V:2
 [G,,G,]4 [G,,G,]2 | [C,G,]4 [C,G,]2 | [G,D]2 z2 z2 | [D,A,C]4 [D,A,C]2 | %4
 [E,G,B,]2 [D,F,C]2 [G,D]2 | [C,G,]4 [C,G,]2 | [D,D]2 z2 z2 | F,6 | B,,2 A,,2 G,,2 | %9
 [D,CD]4 [D,A,D]2 | D2- [F,A,D]2 [E,G,C]2 | [D,G,D]4 [D,F,D]2 | D4 z2 | E,4 C,2 | D,4 D,2 | G,,6 | %16
 z2 B,2 G,2 | D,4 D,2 | E,4 C,2 | D,4 D,2 | z2 C2 =F,2 | z2 G,2 [E,B,]2 | [D,A,]4 [D,B,]2 | %23
 [D,D]4- [D,F,D]2 | G,4 z2 | [D,D]4 [D,CD]2 | B,2 z2 z2 | G,4 z2 | [G,,G,]4 [G,,G,]2 | %29
 [C,G,]4 C,2 | D,4 D,2 |[M:7/4] G,,6 z2 z2 z4 |[M:3/4] C,6 | G,,6 |] %34
V:3
 x6 | x6 | D,2- [D,F,C]2 [D,G,B,]2 | x6 | x6 | x6 | G,2- [E,G,^C]2 [A,,A,]2 | D,4 C,2 | x6 | x6 | %10
 [G,B,]2 z2 z2 | x6 | G,2 [F,A,]2 =F,2 | x6 | x6 | x6 | G,4 z2 | x6 | x6 | x6 | G,4 z2 | E,4 z2 | %22
 x6 | G,4 z2 | G,,2 z2 [D,G,D]2 | F,2 z2 z2 | [E,E]4 [D,G,]2 | B,,2 z2 [C,G,]2 | x6 | x6 | x6 | %31
[M:7/4] x14 |[M:3/4] x6 | x6 |] %34
V:4
 x6 | x6 | x6 | x6 | x6 | x6 | x6 | x6 | [G,G]2 z2 z2 | x6 | x6 | x6 | x6 | x6 | x6 | x6 | x6 | %17
 x6 | x6 | x6 | B,2 z2 z2 | C2 z2 z2 | G2 z2 z2 | x6 | z2[K:bass] B,,2[K:treble] B2 | z2 A,2 A2 | %26
 z2 G,2 [=FB]2 | z2[K:bass] G,,2[K:treble] [Ec]2 | x6 | x6 | x6 |[M:7/4] x14 |[M:3/4] x6 | x6 |] %34

